X:142
T: WARUM BLICKT DOCH SO VERSTOHLEN
N: Z0141
O: Europa, Mitteleuropa, Deutschland
R: Erzaehlung, lustige Romanze
M: 4/4
L: 1/16
K: G
D2D2 | D2B2c2B2B2A2
A2G2 | G2F2E2D2D2G2
G2B2 | B2A2A2G2F2E2
G2F2 | F2E2D2C2D2z2
A2A2 | G2F2E2D2D2G2
A2B2 | c2B2A2G2F4
D2D2 | d2d2c2B2d2c2
A2G2 | FGABc2F2G4

